app/dist/common/images/meten.svg

<svg height="18" viewBox="0 0 18 18" width="18" xmlns="http://www.w3.org/2000/svg"><path d="m0 0h18v18h-18z" fill="#005d86"/><path d="m6.36 5a3.36 3.36 0 0 0 -3.36 3.36v3.64a1 1 0 1 0 2 0v-3.5a1.5 1.5 0 1 1 3 0v3.5a1 1 0 1 0 2 0v-3.5a1.5 1.5 0 0 1 3 0v3.5a1 1 0 1 0 2 0v-3.54a3.46 3.46 0 0 0 -6.07-2.26 3.35 3.35 0 0 0 -2.57-1.2z" fill="#fff"/></svg>

<!-- by TradingView --><svg xmlns="http://www.w3.org/2000/svg" width="18" height="18" viewBox="0 0 18 18"><path fill="#005D86" d="M0 0h18v18H0z"/><path d="M6.36 5A3.36 3.36 0 0 0 3 8.36V12a1 1 0 1 0 2 0V8.5a1.5 1.5 0 1 1 3 0V12a1 1 0 1 0 2 0V8.5a1.5 1.5 0 0 1 3 0V12a1 1 0 1 0 2 0V8.46A3.46 3.46 0 0 0 8.93 6.2 3.35 3.35 0 0 0 6.36 5z" fill="#fff"/></svg>
